X:1
T:Title
%%score { 1 | 2 }
L:1/8
Q:1/4=108
M:4/4
K:D
V:1 treble nm="Grand Piano"
V:2 bass 
V:1
 [FA]3 F A2 D2 | G3 F [CE]4 | [A,D]2 z2 [A,CE]2 [CE]2 | [A,DF]6 z2 | [^G,DE]2 [DE]2 [D^G]2 [DF]2 | %5
w: Grace~Wilbur~Conant * * *|||||
 [CF]2 [CE]2 [CE]4 | [D^G]2 [DG]2 [Dc]2 [DB]2 | [CB]2 [CA]2 [CA]2 Bc | [Ad]4 [DGB]4 | [A,DA]6 GF | %10
w: |||||
 [B,EG]4[K:bass] [A,CE]4[Q:1/4=106][Q:1/4=105][Q:1/4=103][Q:1/4=101][Q:1/4=100][Q:1/4=98][Q:1/4=96][Q:1/4=95][Q:1/4=93][Q:1/4=91][Q:1/4=89][Q:1/4=88][Q:1/4=86][Q:1/4=84][Q:1/4=83] | %11
w: |
 [F,A,D]6 z2 |] %12
w: |
V:2
 [D,A,]4 [F,A,D]2 [F,A,]2 | [E,B,D]4 A,2 G,2 | F,2 D2 E,2 A,,2 | D,6 C,2 | B,,2 E,2 E,,2 E,2 | %5
 A,,2 E,2 A,2 E,2 | B,,2 E,2 F,2 ^G,2 | A,2 E,2 A,,2 [G,E]2 | [F,A,D]4 G,4 | F,3 E, D,2 [B,^D]2 | %10
 E,2 F,2 G,2 A,,2 | .D,2 .A,,2 .D,,2 z2 |] %12

